!!!CDT:
!!!PTL: Madrigali da concertarsi a cinque voci et il basso continuo
!!!PPP: Florence
!!!PPR: Zanobi Pignoni
!!!PDT: 1631
!!!RISM: G 4826
!!!rime: 376
!!!AGN: Madrigal
!!!SCT: Trm0376i
!!!SCA: Trm0376i
!!!voices:
!!!COM: Guelfi, Antonio
!!!OTL: Dolcemente dormiva la mia Clori 
**kern	**text
*part1	*part1
*staff1	*staff1
*I"Tenore	*
*I'T	*
*oclefC4	*
*clefGv2	*
*k[b-]	*
*F:	*
*omet(C)	*
*M4/2	*
=1	=
0r	.
=2	=2
0r	.
=3	=3
0r	.
=4	=4
0r	.
=5	=5
0r	.
=6	=6
0r	.
=7	=7
0r	.
=8	=8
1r	.
[1G	Dol-
=9	=9
2G]	.
2G	-ce-
2G	-men-
2G	-te
=10	=10
2r	.
2E-X	dor-
1C	-mi-
=11	=11
2.C	-va
2C	la
8E-XL	mia
8FJ	.
4G	Clo-
4G	-ri,
=12	=12
1r	.
4G	la
8AL	mia
8B-yJ	.
[2c	Clo-
=13	=13
1c]	.
1B-y	-ri
=14	=14
8r	.
8G	E in-
16GL	-tor-
16A	.
16G	.
16AJ	.
8B-y	.
8A	-no al
8B-y	suo
8G	bel
2A	vol-
2B-y	-to,
=15	=15
1r	.
2r	.
4r	.
8r	.
8d	E in-
=16	=16
16dL	-tor-
16e-X	.
16d	.
16cJ	.
4.B-y	.
8A	-no al
8G	suo
8G	bel
2F#X	vol-
2F#X	-to
=17	=17
1r	.
2r	.
4c	Gi-
4A	-van
=18	=18
16B-y	scher-
16cL	-zan-
16d	.
16e	.
16f	.
16d	.
16e	.
16fJ	.
4g	.
4g	-do,
2r	.
4f	Gi-
8f	-van
8c	scher-
=19	=19
8f	-zan-
8d	-ndo i
8c	par-
8B-y	-gol-
8A	-et-
8A	-ti a-
4A	-mo-
1BnX	-ri.
=20	=20
4r	.
2c	Mi-
2F	-ra-
2D	-va io,
[4BB-i	da
=21	=21
4BB-]	.
4d	me
1g	tol-
4.g	-to,
8g	Con
=22	=22
16eL	gran
8.d	.
16eJ	di-
8.d	.
8g	-let-
4e	.
8e	-to
2f#X	le-
2f#X	-i,
=23	=23
0r	.
=24	=24
1r	.
!!LO:TX:a:cj:t=[whole] &rarr; [whole-dot]
=25	=25
*M6/2	*
*omet(3)	*
1%3r	.
!!LO:TX:a:cj:t=[whole-dot] &rarr; [whole]
=26	=26
*M4/2	*
*omet(C)	*
2r	.
4r	.
8G	Quan-
8G	-do
4G	dir
8G	mi
8G	sen-
4C	-te-
4C	-i,
!!LO:TX:a:cj:t=[whole] &rarr; [whole-dot]
=27	=27
*M6/2	*
*omet(3)	*
1%3r	.
!!LO:TX:a:cj:t=[whole-dot] &rarr; [whole]
=28	=28
*M4/2	*
*omet(C)	*
4r	.
8d	Quan-
8d	-do
4d	dir
8d	mi
8d	sen-
2G	-te-
2G	-i:
=29	=29
2r	.
4r	.
16DL	"Stol-
16E	.
16F#X	.
16DJ	.
16F#X	-to,
16GL	che
16A	.
16F#XJ	.
16GL	fa-
16A	.
16B-y	.
16GJ	.
8cL	.
16B-y	.
16cJ	.
4d	.
=30	=30
2G	-i?
16EL	Stol-
16FnXi	.
16G	.
16EJ	.
16GL	-to,
16A	.
16B-y	.
16GJ	.
8A	.
8A	che
4G	fa-
2D	-i?"
=31	=31
4r	.
8c	Quan-
8c	-do
4c	dir
8c	mi
8c	sen-
8F	-te-
8F	-i:
16AL	"Stol-
16B-y	.
16c	.
16AJ	.
16cL	-to,
16d	.
16e	.
16cJ	.
16eL	che
16f	.
16g	.
16eJ	.
=32	=32
2f	fa-
2F	-i?
16FL	Stol-
16G	.
16A	.
16FJ	.
16B-yL	-to,
16c	.
16d	.
16B-yJ	.
16dL	che
16e	.
16f	.
16dJ	.
4f	fa-
=33	=33
2B-y	-i?
2r	.
16EL	Stol-
16F	.
16G	.
16EJ	.
16GL	-to,
16A	.
16B-y	.
16GJ	.
16AL	che
16B-y	.
16c	.
16AJ	.
4c	fa-
=34	=34
2F	-i?
2r	.
16FL	Stol-
16G	.
16A	.
16FJ	.
16AL	-to,
16B-y	.
16c	.
16AJ	.
16dL	che
16e	.
16f	.
16d	.
(>8fJ	fa-
8F)	.
=35	=35
2B-y	-i?
2r	.
2r	.
4r	.
16EL	Stol-
16F	.
16G	.
16EJ	.
=36	=36
16AL	-to,
16B-y	.
16c	.
16AJ	.
16cL	che
16d	.
16e	.
16cJ	.
4f	fa-
4F	-i?
1r	.
=37	=37
8r	.
8B-y	Tem-
8A	-po
8G	per-
4A	-du-
4A	-to
8G	non
8G	s'ac-
8B-y	-qui-
8B-y	-sta,
8d	non
8d	s'ac-
8g	-qui-
8g	-sta
=38	=38
1d	ma-
1c	-i."
=39	=39
4r	.
2g	Al-
2e-X	-lor
2c	io
[4A	mi
=40	=40
4A]	.
2F	chi-
2D	-nai
4D	co-
4.C	-sì
8BBnX	pian
=41	=41
1D	pia-
1D	-no,
=42	=42
4r	.
4f	Al-
2d	-lor
2B-y	io
2G	mi
=43	=43
2.E	chi-
4C	-nai
8BBnX	co-
8C#i	-sì
2D	pian
8C#XL	pia-
8BBnXJ	.
=44	=44
2C#X	.
1C#i	-no,
2r	.
=45	=45
1.F	E
2A-X	ba-
=46	=46
2e-X	-cian-
4d	.
4c	.
1BnX	.
=47	=47
2.BnX	-do-
4F#X	-li il
1c#X	vi-
=48	=48
2c#X	-so
2c#X	Pro-
1e	-vai
=49	=49
2r	.
1A	quan-
[2cnXi	-ta
=50	=50
2c]	.
2c	dol-
1d-X	-cez-
=51	=51
2B-y	-za
2r	.
1r	.
=52	=52
2d-X	ha il
1d-X	pa-
2B-y	-ra-
=53	=53
1B-y	-di-
1B-yl	-so.
==	==
*-	*-
!!!RDF**kern: > = above
!!!RDF**kern: i = editorial accidental
!!!RDF**kern: l = terminal long
!!!ENC: Emiliano Ricciardi
!!!END:
!!!EED: Ricciardi, Emiliano
!!!EEV: 2020/01/19
!!!YEC: Copyright 2018 Emiliano Ricciardi, All Rights Reserved
!!!ONB: Translated from MusicXML on 2020/01/19
!!@@BEGIN:	VERSEDATA
!!@SOLERTI:	376
!!@CATALOGNUM:	Trm0376
!!@LAST_MODIFIED: 2020/07/12
!!@ATTRIBUTION: 	not secure
!!@TITLE:		Dolcemente dormiva la mia Clori
!!@GENRE:		madrigale
!!@MANUSRC:	none
!!@PRINTSRC:	27, 70, 141, 145, 166, 169
!!@@BEGIN:	VERSES
!!@ABOUTIT:
!!@ABOUTEN:
!!@EDITOR:	Solerti, Angelo
!!@EDITION_TITLE: Le Rime di Torquato Tasso
!!@EDITION_LOC:	Bologna
!!@EDITION_PUB:	Romagnoli-Dall’Acqua
!!@EDITION_DATE:  1898-1902
!!@EDITION_VOL:	2
!!@EDITION_PAGE:  412
!!@TRANSLATOR:	Emiliano Ricciardi and Amyrose McCue Gill
!!@VERSE:
!!	Dolcemente dormiva la mia Clori
!!	E 'ntorno al suo bel volto
!!	Givan scherzando i pargoletti Amori.
!!	Mirav'io, da me tolto,
!!	Con gran diletto lei,
!!	Quando dir mi sentii &mdash; Stolto, che fai?
!!	Tempo perduto non s'acquista mai. &mdash;
!!	Allor io mi chinai così pian piano,
!!	E baciandole il viso
!!	Provai quanta dolcezza ha il paradiso.
!!@TVERSE:
!!	Sweetly was my Chloris sleeping
!!	And around her beautiful face
!!	Flew, playing, little love cherubs.
!!	I was watching her, stolen from myself,
!!	With great pleasure,
!!	When I heard myself say: &mdash; Fool, what are you doing?
!!	Time lost is never regained. &mdash;
!!	Thus I bent down, ever so slowly,
!!	And kissing her face
!!	Tasted as much sweetness as Heaven holds.
!!@@END:		VERSES
!!@OTHER_CRIT_ED:   None
!!@ATTRIBUTION_ABOUT:	Not secure
!!		<br>
!!		This poem is attributed to Tasso only in a literary print that was not supervised by Tasso and in reprints thereof (see Literary Sources).
!!@DATING:	In or before 1586
!!		<br>
!!		The earliest appearance of this poem in a literary print published in 1586 by Giulio Vasalini (see Literary Sources).
!!@DEDICATEE:
!!@COMMENTARY:
!!@@END:		VERSEDATA
!!@@BEGIN:	SETTING
!!@CATALOGNUM:	Trm0376i
!!@RIMETITLE:	Dolcemente dormiva la mia Clori
!!@SOLERTI:	376
!!@COMPOSER:	Guelfi, Antonio
!!@PRINCEPSTITLE:	Madrigali da concertarsi a cinque voci et il basso continuo
!!@PRINCEPSLOC:	Firenze
!!@NORMLOC:	Florence
!!@NORMPUB:	Zanobi Pignoni
!!@NORMPUBSHORT:	Pignoni
!!@PRINCEPSPUB:	Zanobi Pignoni
!!@PRINCEPSYEAR:	1631
!!@PRINCEPSRISM:	G 4826
!!@REPRINTS:	
!!@OVOICES:	5 + bc
!!@EXTANTVOICES:	1
!!@PARTBOOKS:	
!!@EXTPARTBOOKS:	
!!@OCLEFS:	C4
!!@OMENSURATION:	C; 3; C; 3; C
!!@OKEYSIG:	b-
!!@FINAL:	?
!!@TIMPEDITOR:	Ricciardi, Emiliano
!!@NOTE:		
!!@@END:		SETTING
